flaticon/music/amplifier-1.svg

<svg xmlns="http://www.w3.org/2000/svg" width="32" height="32" viewBox="0 0 24 24">
    <path d="M 24 5.199219 L 24 4.0625 C 24 2.707031 22.894531 1.601562 21.535156 1.601562 L 20.398438 1.601562 C 20.179688 1.601562 20 1.777344 20 2 L 15.601562 2 L 15.601562 1.136719 C 15.601562 0.507812 15.089844 0 14.464844 0 L 9.535156 0 C 8.910156 0 8.398438 0.507812 8.398438 1.136719 L 8.398438 2 L 4 2 C 4 1.777344 3.820312 1.601562 3.601562 1.601562 L 2.464844 1.601562 C 1.105469 1.601562 0 2.707031 0 4.0625 L 0 5.199219 C 0 5.421875 0.179688 5.601562 0.398438 5.601562 L 0.398438 20 C 0.179688 20 0 20.179688 0 20.398438 L 0 21.535156 C 0 22.894531 1.105469 24 2.464844 24 L 3.601562 24 C 3.820312 24 4 23.820312 4 23.601562 L 20 23.601562 C 20 23.820312 20.179688 24 20.398438 24 L 21.535156 24 C 22.894531 24 24 22.894531 24 21.535156 L 24 20.398438 C 24 20.179688 23.820312 20 23.601562 20 L 23.601562 5.601562 C 23.820312 5.601562 24 5.421875 24 5.199219 Z M 21.535156 2.398438 C 22.453125 2.398438 23.199219 3.144531 23.199219 4.0625 L 23.199219 4.800781 L 20.800781 4.800781 L 20.800781 2.398438 Z M 21.199219 20 L 20.398438 20 C 20.179688 20 20 20.179688 20 20.398438 L 20 21.199219 L 4 21.199219 L 4 20.398438 C 4 20.179688 3.820312 20 3.601562 20 L 2.800781 20 L 2.800781 5.601562 L 3.601562 5.601562 C 3.820312 5.601562 4 5.421875 4 5.199219 L 4 4.398438 L 20 4.398438 L 20 5.199219 C 20 5.421875 20.179688 5.601562 20.398438 5.601562 L 21.199219 5.601562 Z M 9.199219 1.136719 C 9.199219 0.949219 9.351562 0.800781 9.535156 0.800781 L 14.464844 0.800781 C 14.648438 0.800781 14.800781 0.949219 14.800781 1.136719 L 14.800781 2 L 9.199219 2 Z M 8.800781 2.800781 L 20 2.800781 L 20 3.601562 L 4 3.601562 L 4 2.800781 Z M 0.800781 4.0625 C 0.800781 3.144531 1.546875 2.398438 2.464844 2.398438 L 3.199219 2.398438 L 3.199219 4.800781 L 0.800781 4.800781 Z M 1.199219 5.601562 L 2 5.601562 L 2 20 L 1.199219 20 Z M 2.464844 23.199219 C 1.546875 23.199219 0.800781 22.453125 0.800781 21.535156 L 0.800781 20.800781 L 3.199219 20.800781 L 3.199219 23.199219 Z M 4 22.800781 L 4 22 L 20 22 L 20 22.800781 Z M 23.199219 21.535156 C 23.199219 22.453125 22.453125 23.199219 21.535156 23.199219 L 20.800781 23.199219 L 20.800781 20.800781 L 23.199219 20.800781 Z M 22.800781 20 L 22 20 L 22 5.601562 L 22.800781 5.601562 Z M 22.800781 20"/>
    <path d="M8 8.800781C8 7.917969 7.28125 7.199219 6.398438 7.199219 5.519531 7.199219 4.800781 7.917969 4.800781 8.800781 4.800781 9.683594 5.519531 10.398438 6.398438 10.398438 7.28125 10.398438 8 9.683594 8 8.800781zM5.601562 8.800781C5.601562 8.359375 5.957031 8 6.398438 8 6.839844 8 7.199219 8.359375 7.199219 8.800781 7.199219 9.242188 6.839844 9.601562 6.398438 9.601562 5.957031 9.601562 5.601562 9.242188 5.601562 8.800781zM6.398438 15.199219C5.519531 15.199219 4.800781 15.917969 4.800781 16.800781 4.800781 17.683594 5.519531 18.398438 6.398438 18.398438 7.28125 18.398438 8 17.683594 8 16.800781 8 15.917969 7.28125 15.199219 6.398438 15.199219zM6.398438 17.601562C5.957031 17.601562 5.601562 17.242188 5.601562 16.800781 5.601562 16.359375 5.957031 16 6.398438 16 6.839844 16 7.199219 16.359375 7.199219 16.800781 7.199219 17.242188 6.839844 17.601562 6.398438 17.601562zM17.601562 7.199219C16.71875 7.199219 16 7.917969 16 8.800781 16 9.683594 16.71875 10.398438 17.601562 10.398438 18.480469 10.398438 19.199219 9.683594 19.199219 8.800781 19.199219 7.917969 18.480469 7.199219 17.601562 7.199219zM17.601562 9.601562C17.160156 9.601562 16.800781 9.242188 16.800781 8.800781 16.800781 8.359375 17.160156 8 17.601562 8 18.042969 8 18.398438 8.359375 18.398438 8.800781 18.398438 9.242188 18.042969 9.601562 17.601562 9.601562zM17.601562 9.601562"/>
    <path d="M 20.800781 8.800781 C 20.800781 7.035156 19.363281 5.601562 17.601562 5.601562 C 16.785156 5.601562 16.003906 5.914062 15.414062 6.46875 C 13.308594 5.332031 10.691406 5.332031 8.585938 6.46875 C 7.996094 5.914062 7.214844 5.601562 6.398438 5.601562 C 4.636719 5.601562 3.199219 7.035156 3.199219 8.800781 C 3.199219 9.996094 3.855469 11.074219 4.898438 11.625 C 4.832031 12.015625 4.800781 12.410156 4.800781 12.800781 C 4.800781 13.191406 4.832031 13.585938 4.898438 13.976562 C 3.855469 14.527344 3.199219 15.601562 3.199219 16.800781 C 3.199219 18.5625 4.636719 20 6.398438 20 C 7.214844 20 7.996094 19.6875 8.585938 19.132812 C 10.691406 20.269531 13.308594 20.269531 15.414062 19.132812 C 16.003906 19.6875 16.785156 20 17.601562 20 C 19.363281 20 20.800781 18.5625 20.800781 16.800781 C 20.800781 15.601562 20.144531 14.527344 19.101562 13.976562 C 19.167969 13.585938 19.199219 13.191406 19.199219 12.800781 C 19.199219 12.410156 19.167969 12.015625 19.101562 11.625 C 20.144531 11.074219 20.800781 9.996094 20.800781 8.800781 Z M 18.503906 11.023438 C 18.324219 11.097656 18.222656 11.285156 18.261719 11.476562 C 18.351562 11.914062 18.398438 12.359375 18.398438 12.800781 C 18.398438 13.242188 18.351562 13.6875 18.261719 14.125 C 18.222656 14.3125 18.324219 14.503906 18.503906 14.578125 C 19.410156 14.945312 20 15.820312 20 16.800781 C 20 18.125 18.921875 19.199219 17.601562 19.199219 C 16.90625 19.199219 16.246094 18.898438 15.789062 18.371094 C 15.707031 18.277344 15.597656 18.230469 15.484375 18.230469 C 15.414062 18.230469 15.34375 18.25 15.28125 18.289062 C 13.289062 19.480469 10.714844 19.480469 8.722656 18.289062 C 8.554688 18.1875 8.339844 18.222656 8.210938 18.371094 C 7.753906 18.898438 7.09375 19.199219 6.398438 19.199219 C 5.078125 19.199219 4 18.125 4 16.800781 C 4 15.820312 4.589844 14.945312 5.496094 14.578125 C 5.675781 14.503906 5.777344 14.3125 5.738281 14.125 C 5.648438 13.6875 5.601562 13.242188 5.601562 12.800781 C 5.601562 12.359375 5.648438 11.914062 5.738281 11.476562 C 5.777344 11.285156 5.675781 11.097656 5.496094 11.023438 C 4.589844 10.652344 4 9.78125 4 8.800781 C 4 7.476562 5.078125 6.398438 6.398438 6.398438 C 7.09375 6.398438 7.753906 6.703125 8.210938 7.230469 C 8.339844 7.378906 8.554688 7.410156 8.722656 7.3125 C 10.714844 6.121094 13.289062 6.121094 15.28125 7.3125 C 15.445312 7.410156 15.660156 7.378906 15.789062 7.230469 C 16.246094 6.703125 16.90625 6.398438 17.601562 6.398438 C 18.921875 6.398438 20 7.476562 20 8.800781 C 20 9.78125 19.410156 10.652344 18.503906 11.023438 Z M 18.503906 11.023438"/>
    <path d="M16 16.800781C16 17.683594 16.71875 18.398438 17.601562 18.398438 18.480469 18.398438 19.199219 17.683594 19.199219 16.800781 19.199219 15.917969 18.480469 15.199219 17.601562 15.199219 16.71875 15.199219 16 15.917969 16 16.800781zM18.398438 16.800781C18.398438 17.242188 18.042969 17.601562 17.601562 17.601562 17.160156 17.601562 16.800781 17.242188 16.800781 16.800781 16.800781 16.359375 17.160156 16 17.601562 16 18.042969 16 18.398438 16.359375 18.398438 16.800781zM12 8C9.351562 8 7.199219 10.152344 7.199219 12.800781 7.199219 15.445312 9.351562 17.601562 12 17.601562 14.648438 17.601562 16.800781 15.445312 16.800781 12.800781 16.800781 10.152344 14.648438 8 12 8zM12 16.800781C9.792969 16.800781 8 15.003906 8 12.800781 8 10.59375 9.792969 8.800781 12 8.800781 14.207031 8.800781 16 10.59375 16 12.800781 16 15.003906 14.207031 16.800781 12 16.800781zM12 16.800781"/>
    <path d="M 12 10.398438 C 10.675781 10.398438 9.601562 11.476562 9.601562 12.800781 C 9.601562 14.125 10.675781 15.199219 12 15.199219 C 13.324219 15.199219 14.398438 14.125 14.398438 12.800781 C 14.398438 11.476562 13.324219 10.398438 12 10.398438 Z M 12 14.398438 C 11.117188 14.398438 10.398438 13.683594 10.398438 12.800781 C 10.398438 11.917969 11.117188 11.199219 12 11.199219 C 12.882812 11.199219 13.601562 11.917969 13.601562 12.800781 C 13.601562 13.683594 12.882812 14.398438 12 14.398438 Z M 12 14.398438"/>
</svg>

<svg xmlns="http://www.w3.org/2000/svg" width="32" height="32" viewBox="0 0 24 24">
    <path d="M24 5.2V4.061a2.466 2.466 0 0 0-2.465-2.46h-1.137A.398.398 0 0 0 20 2h-4.398v-.863C15.602.507 15.09 0 14.465 0h-4.93C8.91 0 8.398.508 8.398 1.137V2H4a.398.398 0 0 0-.398-.398H2.465A2.466 2.466 0 0 0 0 4.062V5.2c0 .223.18.403.398.403V20a.4.4 0 0 0-.398.398v1.137A2.467 2.467 0 0 0 2.465 24h1.137A.4.4 0 0 0 4 23.602h16a.4.4 0 0 0 .398.398h1.137A2.467 2.467 0 0 0 24 21.535v-1.137a.4.4 0 0 0-.398-.398V5.602c.218 0 .398-.18.398-.403zm-2.465-2.802c.918 0 1.664.747 1.664 1.664v.739h-2.398V2.398zM21.2 20h-.8a.4.4 0 0 0-.399.398v.801H4v-.8A.4.4 0 0 0 3.602 20H2.8V5.602h.8c.22 0 .399-.18.399-.403v-.8h16v.8c0 .223.18.403.398.403h.801zM9.2 1.137C9.2.949 9.352.8 9.535.8h4.93c.183 0 .336.148.336.336V2H9.199zM8.801 2.8H20v.8H4v-.8zm-8 1.261c0-.917.746-1.664 1.664-1.664h.734v2.403H.801zm.398 1.54H2V20h-.8zm1.266 17.597A1.665 1.665 0 0 1 .8 21.535v-.734h2.398v2.398zM4 22.801V22h16v.8zm19.2-1.266c0 .918-.747 1.664-1.665 1.664h-.734v-2.398h2.398zM22.8 20H22V5.602h.8zm0 0"/>
    <path d="M8 8.8c0-.882-.719-1.6-1.602-1.6A1.6 1.6 0 1 0 8 8.801zm-2.398 0a.799.799 0 1 1 1.597 0 .799.799 0 0 1-1.598 0zm0 0M6.398 15.2A1.6 1.6 0 1 0 8 16.801c0-.884-.719-1.603-1.602-1.603zm0 2.402a.799.799 0 0 1-.796-.801.799.799 0 1 1 1.597 0c0 .441-.36.8-.8.8zm0 0M17.602 7.2C16.719 7.2 16 7.917 16 8.8a1.6 1.6 0 0 0 3.2 0c0-.882-.72-1.6-1.598-1.6zm0 2.402a.802.802 0 0 1 0-1.602c.441 0 .796.36.796.8 0 .442-.355.802-.796.802zm0 0"/>
    <path d="M20.8 8.8c0-1.765-1.437-3.198-3.198-3.198-.817 0-1.598.312-2.188.867a7.262 7.262 0 0 0-6.828 0 3.193 3.193 0 0 0-2.188-.867A3.203 3.203 0 0 0 3.2 8.8c0 1.195.656 2.273 1.7 2.824-.067.39-.098.785-.098 1.176 0 .39.031.785.097 1.176A3.18 3.18 0 0 0 3.2 16.8C3.2 18.563 4.637 20 6.4 20c.816 0 1.597-.313 2.187-.867a7.262 7.262 0 0 0 6.828 0c.59.555 1.371.867 2.188.867 1.761 0 3.199-1.438 3.199-3.2a3.18 3.18 0 0 0-1.7-2.823c.067-.391.098-.786.098-1.176 0-.39-.031-.785-.097-1.176A3.184 3.184 0 0 0 20.8 8.801zm-2.296 2.223a.401.401 0 0 0-.242.454c.09.437.136.882.136 1.324 0 .441-.046.886-.136 1.324a.403.403 0 0 0 .242.453A2.392 2.392 0 0 1 20 16.801a2.401 2.401 0 0 1-2.398 2.398c-.696 0-1.356-.3-1.813-.828a.4.4 0 0 0-.305-.14c-.07 0-.14.019-.203.058a6.464 6.464 0 0 1-6.558 0 .401.401 0 0 0-.512.082 2.396 2.396 0 0 1-1.813.828A2.401 2.401 0 0 1 4 16.801c0-.98.59-1.856 1.496-2.223a.403.403 0 0 0 .242-.453 6.598 6.598 0 0 1-.136-1.324c0-.442.046-.887.136-1.324a.401.401 0 0 0-.242-.454A2.396 2.396 0 0 1 4 8.801a2.405 2.405 0 0 1 2.398-2.403 2.4 2.4 0 0 1 1.813.832c.129.149.344.18.512.082a6.464 6.464 0 0 1 6.558 0 .401.401 0 0 0 .508-.082 2.4 2.4 0 0 1 1.813-.832A2.405 2.405 0 0 1 20 8.801c0 .98-.59 1.851-1.496 2.222zm0 0"/>
    <path d="M16 16.8a1.6 1.6 0 0 0 3.2 0c0-.882-.72-1.6-1.598-1.6-.883 0-1.602.718-1.602 1.6zm2.398 0a.799.799 0 1 1-1.597 0 .799.799 0 0 1 1.598 0zm0 0M12 8a4.805 4.805 0 0 0-4.8 4.8c0 2.645 2.152 4.802 4.8 4.802 2.648 0 4.8-2.157 4.8-4.801C16.8 10.152 14.649 8 12 8zm0 8.8c-2.207 0-4-1.796-4-4 0-2.206 1.793-4 4-4s4 1.794 4 4c0 2.204-1.793 4-4 4zm0 0"/>
    <path d="M12 10.398a2.402 2.402 0 0 0-2.398 2.403 2.399 2.399 0 0 0 4.796 0A2.402 2.402 0 0 0 12 10.398zm0 4a1.6 1.6 0 0 1-1.602-1.597c0-.883.72-1.602 1.602-1.602a1.6 1.6 0 0 1 0 3.2zm0 0"/>
</svg>
